source/img/icons/like.svg

<svg width="23" height="21" viewBox="0 0 23 21" fill="none" xmlns="http://www.w3.org/2000/svg">
<path opacity="0.3" d="M12.9636 3.78L12.3364 6.825L11.7091 9.45H14.3227H20.8045V11.55C20.8045 11.55 20.8045 11.55 20.8045 11.655L17.7727 18.9H8.36364V8.4L12.9636 3.78ZM2.09091 10.5V18.9V10.5ZM13.8 0L6.9 6.93C6.48182 7.245 6.27273 7.77 6.27273 8.4V18.9C6.27273 20.055 7.21364 21 8.36364 21H17.7727C18.6091 21 19.3409 20.475 19.6545 19.74L22.7909 12.285C22.8955 12.075 22.8955 11.76 22.8955 11.55V9.45H23C23 8.295 22.0591 7.35 20.9091 7.35H14.3227L15.3682 2.52V2.205C15.3682 1.785 15.1591 1.365 14.95 1.05L13.8 0ZM4.18182 8.4H0V21H4.18182V8.4Z" fill="black"/>
</svg>

<svg xmlns="http://www.w3.org/2000/svg" width="23" height="21" fill="none" viewBox="0 0 23 21">
  <path fill="currentColor" d="m12.964 3.78-.628 3.045-.627 2.625h9.096v2.205L17.773 18.9h-9.41V8.4l4.6-4.62ZM2.09 10.5v8.4-8.4ZM13.8 0 6.9 6.93c-.418.315-.627.84-.627 1.47v10.5c0 1.155.94 2.1 2.09 2.1h9.41c.836 0 1.568-.525 1.881-1.26l3.137-7.455c.104-.21.104-.525.104-.735v-2.1H23c0-1.155-.94-2.1-2.09-2.1h-6.587l1.045-4.83v-.315c0-.42-.209-.84-.418-1.155L13.8 0ZM4.182 8.4H0V21h4.182V8.4Z"/>
</svg>
